cssgg/arrows-exchange-alt-v.svg

<svg
  width="24"
  height="24"
  viewBox="0 0 24 24"
  fill="none"
  xmlns="http://www.w3.org/2000/svg"
>
  <path
    d="M12.9841 4.99255C12.9841 4.44027 13.4318 3.99255 13.9841 3.99255C14.3415 3.99255 14.6551 4.18004 14.8319 4.46202L17.5195 7.14964C17.9101 7.54016 17.9101 8.17333 17.5195 8.56385C17.129 8.95438 16.4958 8.95438 16.1053 8.56385L14.9841 7.44263V14.9926C14.9841 15.5448 14.5364 15.9926 13.9841 15.9926C13.4318 15.9926 12.9841 15.5448 12.9841 14.9926V5.042C12.984 5.03288 12.984 5.02376 12.9841 5.01464V4.99255Z"
    fill="currentColor"
  />
  <path
    d="M11.0159 19.0074C11.0159 19.5597 10.5682 20.0074 10.0159 20.0074C9.6585 20.0074 9.3449 19.82 9.16807 19.538L6.48045 16.8504C6.08993 16.4598 6.08993 15.8267 6.48045 15.4361C6.87098 15.0456 7.50414 15.0456 7.89467 15.4361L9.01589 16.5574V9.00745C9.01589 8.45516 9.46361 8.00745 10.0159 8.00745C10.5682 8.00745 11.0159 8.45516 11.0159 9.00745V18.958C11.016 18.9671 11.016 18.9762 11.0159 18.9854V19.0074Z"
    fill="currentColor"
  />
</svg>

<svg viewBox="0 0 24 24" xmlns="http://www.w3.org/2000/svg"><g><path d="M12.98 4.99c0-.56.44-1 1-1 .35 0 .67.18.84.46l2.68 2.68c.39.39.39 1.02 0 1.41 -.4.39-1.03.39-1.42 0l-1.13-1.13v7.54c0 .55-.45 1-1 1 -.56 0-1-.45-1-1V4.99c-.01-.01-.01-.02 0-.03v-.03Z"/><path d="M11.01 19c0 .55-.45 1-1 1 -.36 0-.68-.19-.85-.47l-2.69-2.69c-.4-.4-.4-1.03 0-1.42 .39-.4 1.02-.4 1.41 0L9 16.54V8.99c0-.56.44-1 1-1 .55 0 1 .44 1 1v9.95s0 .01 0 .02v.02Z"/></g></svg>
